X:1
T:Boys will be Boys
M:4/4
L:1/8
K:G
 D2 D3/2 E/2 D2- D G/2A/2| BG cB AD z D| D2 AB c2 Ac| B/2 G3/2- G4 z2|\
 DD G/2 A3/2 BG z2| cB AG G/2 E3/2 z2| DD AB cA z2| D/2 D3/2 cB B4|\
 DD G3/2 A/2 BG z2| cB A/2 G3/2 GE z2| DD A3/2 B/2 cA z2| d/2 d3/2 A3/2 G/2 G2 B,3/2 C/2|\
